X: 112
T: The Green Fields of America
R: reel
M: C|
L: 1/8
K: G
|:c2ec B2dB | AGAB AGEF | G3E DEGA | BGAB AGEG |
c2ec B2dB | AGAB AGEF | G3E DEGA|BGAB G4 :||
|:GABc d2ef | gage dBGB | c2ec B2dB | AGAB AGED |
|1 GABc d2ef | gage dBGB | c2ec B2dB | AGAB G4 :|
|2 g3d efge | dBGB AGED | G3E DEGA | BGAB G4 |] 

